!!!!SEGMENT: pl-sa--575-a-ix-55--006_anonim--pollonaise.krn
!!!cenid: 18xx:620
!!!COM: Anonim
!!!COM-rismid: pe30004985
!!!CDT:
!!!CNT:
!!!OTL: Pollonaise
!!!PDT:
!!!AGN: Secular; Polonaise
!!!SMS-siglum: PL-SA
!!!SMS-shelfmark: 575/A IX 55
!!!SMS-shelfwork: 006 W
!!!SMS-variant:
!!!SMS-altvar:
!!!NIFC-rismid: 1001109829
!!!system-decoration: {(s1,s2)}
!!!key:
**kern	**kern
*part1	*part1
*staff2	*staff1
*Iempty	*Ipiano
*	*I"Piano
*clefF4	*clefG2
*k[b-e-]	*k[b-e-]
*B-:	*B-:
*M3/4	*M3/4
*>[A,A,B,B,C,C,D,D]	*>[A,A,B,B,C,C,D,D]
=1	=1
*>A	*>A
*	*2\right
!	!LO:TX:a:Bi:t=Pollo&colon;:problem='Pollo&colon;' znajduje się po lewej stronie systemu
4BB-/	8.ffL 8.dd 8.b-\
.	16ee-\Jk
4D\	8ddL 8b-\
.	8dd\J
4BB-/	16b-\LL
.	16dd\
.	16b-\
.	16dd\JJ
=2	=2
4F\	8dd\L
.	8cc\J
8r	4.cc\
8c\L	.
8A\	.
8B-\J	8b-\
=3	=3
4c\	8.aL 8.f/
.	16b-/Jk
4A\	16cc\LL
.	16gg\J
.	8gg\J
4F\	8ffL 8dd\
.	8ee-J 8cc\
=4	=4
8B-\	16ffLL 16dd\
.	16ee- 16cc\
4r	16dd 16b-\
.	16ee-JJ 16cc\
.	4.dd 4.b-\
8BB-/L	.
8D/	.
8F/J	8ee- 8cc\
=5	=5
16BB-\LL	8.ffL 8.b-\
16F\	.
16D\	.
16F\JJ	16ee-\Jk
*rep	*
16BB-\LL	8dd\L
16F\	.
16D\	8dd\J
16F\JJ	.
*Xrep	*
*rep	*
16BB-\LL	16b-\LL
16F\	16dd\
16D\	16b-\
16F\JJ	16dd\JJ
*Xrep	*
=6	=6
8r	8dd\L
8F\	8cc\J
*tremolo	*
!LO:TX:a:t=P:problem=mixed beam	!
8FF/L	4.cc\
8F\	.
8FF/	.
8F\J	8dd\
*Xtremolo	*
=7	=7
!	!LO:TUP:a:problem=klamra łukowa
8r	24ee-\LL
.	24gg\
.	24ee-\JJ
8F\L	4cc\
8A\	.
8F\	8a\
8c\	8.ee-\L
8A\J	.
.	16cc\Jk
=8	=8
8r	16cc\LL
.	16dd\
8A\L	16a\
.	16cc\JJ
.	16qqcc/
8B-\	2b-\
8F\J	.
4BB-/	.
=9:|!|:	=9:|!|:
*>B	*>B
4F\	8.aL 8.f/
.	16b-Jk 16g/
4A\	8ccL 8a\
.	8ccJ 8a\
4F\	16cc\LL
.	16aa\
.	16gg\
.	16ff\JJ
=10	=10
.	8qgg/
8r	8ff\L
8c\L	8een\J
8G\	4.ee\
8E-\J	.
4C/	.
.	8ff\
=11	=11
8r	8ff#X\
8C/	4gg\
4E-\	.
.	8ee-\L
4C/	8cc\
.	8b-\J
=12	=12
8r	8b-\L
8F\L	8a\J
8A\	4.ff\
8c\	.
8A\	.
8F\J	8aa\
!!LO:LB:g=original
=13	=13
4C/	8ff#X\L
.	8.gg\J
4E-\	.
!	!LO:TUP:a:problem=klamra łukowa
.	24ee-\LL
.	24cc\
.	24dd\JJ
.	8.cc\L
4C/	.
.	8b-\J
=14	=14
!LO:TX:a:t=P:problem=mixed beam	!
!	!LO:TX:a:t=a
8c\L	16a\LL
.	16dd\
8C/J	16cc\
.	16e-\JJ
4E-\	8f\L
.	16a\L
.	16b-\JJ
4r	16cc\LL
.	16dd\
.	16ee-X\
.	16een\JJ
=15||	=15||
*>C	*>C
*clefF4	*clefG2
*k[b-e-]	*k[b-e-]
*M3/4	*M3/4
!	!LO:TX:a:Bi:t=Trio:problem='Trio' znajduje się po lewej stornie systemu przed klamrą
!	!LO:TX:a:t=P:problem=w źródle przed częścią Trio znajduje się klamra systemowa
4BB-/	16ffLL 16dd\
.	16gg 16ee-\
.	16aa 16ff\
.	16bb-JJ 16gg\
4B-\	8.bb-L 8.gg\
.	16aaK 16ff\
4r	8.gg 8.ee-\
.	16ffJk 16dd\
=16	=16
4BB-/	8r
.	8ff 8dd\
4B-\	8.bb-L 8.gg\
.	16aaK 16ff\
4r	8.gg 8.ee-\
.	16ffJk 16dd\
=17	=17
8r	8.ccL 8.f/
8F\	.
.	16dd/Jk
!LO:TX:a:t=P:problem=mixed beam	!
8FF\L	8ee-\L
8F/J	16gg\L
.	16ff\JJ
4A\	8.ff\L
.	16ee-\Jk
=18	=18
4B-\	16dd\LL
.	16b-\
.	16a\
.	16ee-\JJ
8r	4cc\
8F\	.
4BB-/	8b-
.	8r
=19:|!|:	=19:|!|:
*>D	*>D
4F\	4ee-\
4A\	8.gg\L
.	16ee-\Jk
4F\	4cc\
=20	=20
*tremolo	*
!LO:TX:a:t=P:problem=mixed beam	!
8C/L	8dd\L
8B-\	8dd\
8C/	8.ff\
8B-\	.
.	16dd\Jk
8C/	4b-\
8B-\J	.
*Xtremolo	*
=21	=21
4F\	16dd\LL
.	16ee-\
.	16dd\
.	16ee-\JJ
4A\	16ff\LL
.	16ff#X\
.	16gg\
.	16ee-\JJ
4F\	4cc\
=22	=22
4B-\	16cc#X\LL
.	16dd\
.	16cc#\
.	16dd\JJ
8B-L 8F\	8bb-L 8dd\
8B-J 8G\	8een\J
4A 4F\	4ff\
==	==
*-	*-
!!title: @{OTL};
!!!RDF**kern: > = above
!!!RDF**kern: < = below
!!!EED: Wojciech Jakubiak-Danek
!!!EST: 2020-12-10
!!!URL-scan: http://bc.bdsandomierz.pl/dlibra/publication/1381/edition/1349/content
!!!ONB-nifc: Str. 3, s. 4-5
!!!AIN: 1 empty
!!!ENC: Tomasz Grochalski
!!!END: 2020-06-19
